public/assets/itam.svg

<svg xmlns:dc="http://purl.org/dc/elements/1.1/" xmlns:cc="http://creativecommons.org/ns#" xmlns:rdf="http://www.w3.org/1999/02/22-rdf-syntax-ns#" xmlns:svg="http://www.w3.org/2000/svg" xmlns="http://www.w3.org/2000/svg" xmlns:sodipodi="http://sodipodi.sourceforge.net/DTD/sodipodi-0.dtd" xmlns:inkscape="http://www.inkscape.org/namespaces/inkscape" inkscape:version="1.0 (4035a4fb49, 2020-05-01)" height="1080" width="3526.374" sodipodi:docname="Logo del ITAM.svg" xml:space="preserve" viewBox="0 0 3526.374 1080" y="0px" x="0px" id="Capa_1" version="1.1" transform="matrix(1, 0, 0, 1, 0, 0)"><metadata id="metadata25" fill="#4a992c"><rdf:RDF fill="#4a992c"><cc:Work rdf:about="" fill="#4a992c"><dc:format fill="#4a992c">image/svg+xml</dc:format><dc:type rdf:resource="http://purl.org/dc/dcmitype/StillImage" fill="#4a992c"/><dc:title fill="#4a992c"/></cc:Work></rdf:RDF></metadata><defs id="defs23" fill="#4a992c"/><sodipodi:namedview inkscape:current-layer="Capa_1" inkscape:window-maximized="1" inkscape:window-y="-8" inkscape:window-x="1352" inkscape:cy="1386.4423" inkscape:cx="1805.3826" inkscape:zoom="0.12911723" fit-margin-bottom="0" fit-margin-right="0" fit-margin-left="0" fit-margin-top="0" showgrid="false" id="namedview21" inkscape:window-height="1017" inkscape:window-width="1920" inkscape:pageshadow="2" inkscape:pageopacity="0" guidetolerance="10" gridtolerance="10" objecttolerance="10" borderopacity="1" bordercolor="#666666" pagecolor="#ffffff" fill="#4a992c"/>
<style id="style2" type="text/css">
	.st0{fill:#FDFDFD;}
	.st1{fill:#0f0f0f;}
	.st2{fill:#FEFEFE;}
</style>
<g transform="matrix(3.6608733,0,0,3.6608733,-1753.4847,-1433.009)" id="g18">
	<g id="g16">
		
		<path id="path6" d="m 1279.13,391.55 c 44.99,0 89.97,0.22 134.96,-0.11 17.34,-0.13 28.21,13.93 28.15,27.89 -0.35,87.58 -0.19,175.16 -0.11,262.74 0,3.23 -0.56,4.39 -4.16,4.36 -21.99,-0.19 -43.99,-0.16 -65.98,-0.02 -3.05,0.02 -3.61,-0.91 -3.61,-3.73 0.08,-71.46 0.06,-142.93 0.06,-214.39 0,-9.94 -3.37,-13.36 -13.17,-13.36 -11.62,0 -23.25,0.21 -34.86,-0.11 -3.98,-0.11 -4.55,1.18 -4.54,4.76 0.11,74.09 0.04,148.18 0.18,222.26 0.01,3.85 -1,4.62 -4.68,4.59 -21.62,-0.19 -43.24,-0.18 -64.85,0 -3.56,0.03 -4.55,-0.77 -4.54,-4.45 0.12,-74.09 0.09,-148.18 0.08,-222.26 0,-5.42 0.63,-4.75 -4.8,-4.77 -12.12,-0.04 -24.24,-0.03 -36.36,-0.03 -6.87,0 -10.96,3.89 -11.27,10.75 -0.05,1 -0.01,2 -0.01,3 0,71.09 -0.03,142.18 0.08,213.27 0.01,3.59 -0.83,4.54 -4.48,4.51 -21.87,-0.19 -43.74,-0.15 -65.6,-0.03 -2.95,0.02 -3.98,-0.46 -3.97,-3.76 0.11,-87.58 0.08,-175.16 0.09,-262.74 0,-17.21 11.13,-28.22 28.44,-28.22 44.99,0 89.97,0 134.96,0 -0.01,-0.07 -0.01,-0.11 -0.01,-0.15 z" class="st1" fill="#4a992c"/>
		<path id="path8" d="m 1084.23,539.26 c 0,40.11 0,80.21 0,120.32 0,15.32 -11.37,26.73 -26.72,26.74 -66.98,0.02 -133.97,0.03 -200.95,0 -25.26,-0.01 -45.91,-20.81 -45.92,-46.1 -0.01,-31.61 0,-63.22 0,-94.83 0,-28.37 19.75,-48.39 48.21,-48.47 44.24,-0.13 88.48,-0.04 132.72,-0.04 5.37,0 10.75,-0.1 16.12,0.04 2.28,0.06 3.01,-0.65 2.98,-2.96 -0.12,-9.12 0.03,-18.24 -0.07,-27.36 -0.09,-7.77 -4.21,-11.7 -11.9,-11.7 -38.62,0.02 -77.23,-0.01 -115.85,0.1 -2.96,0.01 -4.07,-0.53 -4.04,-3.8 0.16,-18.62 0.15,-37.23 0.01,-55.85 -0.02,-2.95 0.74,-3.73 3.71,-3.73 58.49,0.09 116.97,0.06 175.46,0.08 14.7,0.01 26.24,11.7 26.24,26.5 0.01,40.35 0,80.7 0,121.06 z" class="st1" fill="#4a992c"/>
		<path id="path10" d="m 716.11,391.67 c 44.24,0 88.48,0.04 132.72,-0.08 3.24,-0.01 4.2,0.68 4.17,4.07 -0.18,18.49 -0.17,36.98 -0.01,55.47 0.03,3.23 -1,3.86 -4.01,3.85 -30.74,-0.11 -61.48,-0.03 -92.23,-0.16 -3.11,-0.01 -3.92,0.79 -3.92,3.89 0.09,74.47 0.05,148.93 0.15,223.4 0,3.35 -0.74,4.32 -4.22,4.29 -21.87,-0.17 -43.74,-0.17 -65.61,0 -3.3,0.02 -4.07,-0.77 -4.07,-4.07 0.11,-74.34 0.06,-148.68 0.17,-223.02 0.01,-3.59 -0.79,-4.52 -4.47,-4.5 -30.62,0.18 -61.23,0.05 -91.85,0.18 -3.25,0.01 -3.86,-1.03 -3.84,-4.02 0.13,-18.49 0.15,-36.98 -0.01,-55.47 -0.03,-3.15 0.85,-3.91 3.94,-3.9 44.36,0.11 88.73,0.07 133.09,0.07 z" class="st1" fill="#4a992c"/>
		<path id="path12" d="m 479.06,538.86 c 0,-47.73 0.04,-95.46 -0.08,-143.18 -0.01,-3.27 0.73,-4.12 4.06,-4.09 22.12,0.17 44.24,0.14 66.36,0.02 2.73,-0.01 3.61,0.58 3.61,3.47 -0.09,96.08 -0.09,192.16 -0.03,288.24 0,2.57 -0.78,3.06 -3.14,3.05 -22.49,-0.08 -44.99,-0.12 -67.48,0.04 -3.03,0.02 -3.35,-1.03 -3.35,-3.61 0.07,-47.98 0.05,-95.96 0.05,-143.94 z" class="st1" fill="#4a992c"/>
		<path id="path14" d="m 955.62,560.24 c 17.24,0 34.49,0.06 51.73,-0.06 2.59,-0.02 3.36,0.63 3.33,3.29 -0.14,13.62 0,27.23 -0.08,40.85 -0.07,12.14 -7.01,18.9 -19.16,18.9 -28.49,0 -56.98,0.01 -85.47,0 -12.61,0 -21.32,-8.78 -21.33,-21.46 -0.01,-6.75 -0.01,-13.49 0,-20.24 0.01,-12.44 8.76,-21.26 21.13,-21.27 16.61,-0.01 33.23,-0.01 49.85,-0.01 z" class="st2" fill="#4a992c"/>
	</g>
</g>
</svg>

<?xml version="1.0" encoding="UTF-8" standalone="no"?>
<svg
		xmlns:dc="http://purl.org/dc/elements/1.1/"
		xmlns:cc="http://creativecommons.org/ns#"
		xmlns:rdf="http://www.w3.org/1999/02/22-rdf-syntax-ns#"
		xmlns:svg="http://www.w3.org/2000/svg"
		xmlns="http://www.w3.org/2000/svg"
		xmlns:sodipodi="http://sodipodi.sourceforge.net/DTD/sodipodi-0.dtd"
		xmlns:inkscape="http://www.inkscape.org/namespaces/inkscape"
		inkscape:version="1.0 (4035a4fb49, 2020-05-01)"
		height="1080"
		width="3526.374"
		sodipodi:docname="Logo_ITAM_Modern.svg"
		xml:space="preserve"
		viewBox="0 0 3526.374 1080"
		y="0px"
		x="0px"
		id="Capa_1"
		version="1.1">
  <metadata
		  id="metadata25">
    <rdf:RDF>
      <cc:Work
			  rdf:about="">
        <dc:format>image/svg+xml</dc:format>
		  <dc:type
				  rdf:resource="http://purl.org/dc/dcmitype/StillImage" />
		  <dc:title></dc:title>
      </cc:Work>
    </rdf:RDF>
  </metadata>
	<defs
			id="defs23" />
	<sodipodi:namedview
			inkscape:current-layer="Capa_1"
			inkscape:window-maximized="1"
			inkscape:window-y="-8"
			inkscape:window-x="1352"
			inkscape:cy="1386.4423"
			inkscape:cx="1805.3826"
			inkscape:zoom="0.12911723"
			fit-margin-bottom="0"
			fit-margin-right="0"
			fit-margin-left="0"
			fit-margin-top="0"
			showgrid="false"
			id="namedview21"
			inkscape:window-height="1017"
			inkscape:window-width="1920"
			inkscape:pageshadow="2"
			inkscape:pageopacity="0"
			guidetolerance="10"
			gridtolerance="10"
			objecttolerance="10"
			borderopacity="1"
			bordercolor="#666666"
			pagecolor="#ffffff" />
	<style
			id="style2"
			type="text/css">
    .st0{fill:#FDFDFD;}
    .st1{fill:#016853;}
    .st2{fill:#FFFFFF;}
  </style>
	<g
			transform="matrix(3.6608733,0,0,3.6608733,-1753.4847,-1433.009)"
			id="g18">
    <g
			id="g16">
      <!-- Simplified and modernized paths -->
		<path
				id="path6"
				d="M 1279.13,391.55 C 1324.12,391.55 1369.1,391.77 1414.09,391.44 1431.43,391.31 1442.3,405.37 1442.24,419.33 1439.89,506.91 1440.05,594.49 1440.13,682.07 1440.13,685.3 1439.57,686.46 1435.97,686.43 1414,686.24 1392,686.27 1370.01,686.41 1366.96,686.43 1366.4,685.5 1366.4,682.68 1366.48,611.22 1366.46,539.75 1366.46,468.29 1363.09,464.87 1353.29,464.87 1341.67,464.87 1330.04,465.08 1318.43,464.76 1314.45,464.65 1313.88,465.94 1313.89,469.52 1314,543.61 1313.93,617.7 1314.07,691.78 1314.08,695.63 1313.07,696.4 1309.39,696.37 1287.77,696.18 1266.15,696.19 1244.54,696.37 1240.98,696.4 1240,695.6 1240.01,691.92 1240.13,617.83 1240.1,543.74 1240.09,469.65 1240.72,470.32 1235.29,470.3 1223.17,470.26 1211.05,470.27 1198.93,470.27 1192.06,474.16 1191.75,481.02 1191.7,482.02 1191.74,483.02 1191.74,554.11 1191.71,625.2 1191.79,696.29 1191.8,699.88 1190.96,700.83 1187.31,700.8 1165.44,700.61 1143.57,700.65 1121.7,700.67 1117.75,700.21 1117.76,696.91 1117.87,609.33 1117.84,521.75 1117.85,434.17 1117.85,416.96 1128.98,405.95 1146.29,405.95 1191.28,405.95 1236.26,405.95 1281.25,405.95 1281.24,405.88 1281.24,405.84 1281.24,405.8 Z"
				class="st1" />
		<path
				id="path8"
				d="M 1084.23,539.26 C 1084.23,579.37 1084.23,619.47 1084.23,659.58 1084.23,674.9 1072.86,686.31 1057.51,686.32 990.53,686.34 923.55,686.35 856.57,686.32 831.31,686.31 810.66,665.51 810.65,640.22 810.64,608.61 810.65,577 810.65,545.39 810.65,517.02 830.4,497 858.86,496.92 903.1,496.79 947.34,496.88 991.58,496.88 996.95,496.88 1002.33,496.78 1007.7,496.92 1010,496.98 1010.73,496.27 1010.7,493.96 1010.58,484.84 1010.73,475.72 1010.63,466.6 1010.54,458.83 1006.42,454.9 998.73,454.9 960.11,454.92 921.5,454.89 882.88,455 879.92,455.01 878.81,454.47 878.84,451.2 879,432.58 878.99,413.97 878.85,395.35 878.83,392.4 879.59,391.62 882.56,391.62 941.05,391.71 999.53,391.68 1058.02,391.7 1072.72,391.71 1084.26,403.4 1084.26,418.2 1084.27,458.55 1084.26,498.9 1084.26,539.26 Z"
				class="st1" />
		<path
				id="path10"
				d="M 716.11,391.67 C 760.35,391.67 804.59,391.71 848.83,391.59 852.07,391.58 853.03,392.27 853,395.66 852.82,414.15 852.83,432.64 852.99,451.13 853.02,454.36 852,455 848.99,454.99 818.25,454.88 787.51,454.96 756.77,454.83 753.66,454.82 752.85,455.62 752.85,458.72 752.94,533.19 752.9,607.65 753,682.12 753,685.47 752.26,686.44 748.78,686.41 726.91,686.24 705.04,686.24 683.17,686.41 679.87,686.43 679.1,685.64 679.1,682.34 679.21,608 679.16,533.66 679.27,459.32 679.28,455.73 678.48,454.8 674.8,454.78 644.18,454.96 613.57,454.83 582.95,454.96 579.7,454.97 579.09,453.93 579.11,450.94 579.24,432.45 579.26,413.96 579.1,395.47 579.07,392.32 579.95,391.56 583.04,391.57 627.4,391.68 671.76,391.64 716.12,391.64 Z"
				class="st1" />
		<path
				id="path12"
				d="M 479.06,538.86 C 479.06,491.13 479.1,443.4 478.98,395.68 478.97,392.41 479.71,391.56 483.04,391.59 505.16,391.76 527.28,391.73 549.4,391.61 552.13,391.6 553.01,392.19 553.01,395.08 552.92,491.16 552.92,587.24 552.98,683.32 552.98,685.89 552.2,686.38 549.84,686.37 527.35,686.29 504.85,686.25 482.36,686.41 479.33,686.43 479.01,685.38 479.01,682.8 479.08,634.82 479.06,586.84 479.06,538.86 Z"
				class="st1" />
		<path
				id="path14"
				d="M 955.62,560.24 C 972.86,560.24 990.11,560.3 1007.35,560.18 1009.94,560.16 1010.71,560.81 1010.68,563.47 1010.54,577.09 1010.68,590.7 1010.6,604.32 1010.53,616.46 1003.59,623.22 991.44,623.22 962.95,623.22 934.46,623.23 905.97,623.22 893.36,623.22 884.65,614.44 884.64,601.76 884.63,595.01 884.63,588.27 884.64,581.52 884.65,569.08 893.4,560.26 905.77,560.25 922.38,560.24 939,560.24 955.62,560.24 Z"
				class="st2" />
    </g>
  </g>

</svg>
